X: 10862
T: Drive Aggy To Water
R: reel
M: 4/4
K: Dmajor
|:F2FAG2GB|F2EDEDCE|F2FAG2GB|AddcdAFD:|
|:dBAFAcd2|dBAFABAF|dBAFAcd2|dBAFD2D2:|

